;(Benoetigte Werkzeuge:)
;(Fraeser 6mm)
(T1  D=6.0 CR=0. - ZMIN=0 - SCHAFTFRSER)
;(Bohrer 3mm)
(T2  D=3.0 CR=0. - ZMIN=0 - SCHAFTFRSER)

; werkstück abmessungen
(xMin=-2.0, xMax=88, yMin=-2.0, yMax=58, zMin =-12.0, zMax = 0)


N100 (<1: Programmanfang>)
N110 (%001Kommentar:Getriebegehäuse)
N120 G17 
N130 G40
(N140 G50)
N150 G80
N160 G90
(N170 G91.1)
N180 
N190 (<2: Werkzeug Schrupp 6.0>)
N200 T1 M6
N210 S1500 F250 M3
N220 G49
N230 (<3: Tasche/Text -1.8>)
N240 G0 X37.051 Y14.597
N250 G0 Z2
N260 G0 Z2
N270 G1 Z-1.8 F50
N280 G1 X34.386 Y14.597 F250
N290 G1 X16.145 Y17.364
N300 G2 X14.464 Y17.895 I0.855 J5.636
N310 G1 X24.368 Y17.896
N320 G2 X22.753 Y21.196 I4.605 J4.299
N330 G1 X11.593 Y21.195
N340 G2 X11.5 Y24.495 I5.407 J1.805
N350 G1 X22.711 Y24.496
N360 G2 X24.098 Y27.796 I6.262 J-0.691
N370 G1 X13.918 Y27.795
N380 G2 X16.145 Y28.636 I3.082 J-4.795
N390 G1 X32.368 Y31.097
N400 G1 X35.036 Y31.097
N410 G1 X38.209 Y31.578
N420 G2 X41.733 Y31.098 I0.945 J-6.229
N430 G1 X65.443 Y31.1
N440 G3 X59.636 Y34.399 I-8.443 J-8.1
N450 G1 X54.132 Y34.399
N460 G0 Z2
N470 (<4: Tasche/Text -1.8>)
N480 G0 X65.144 Y14.6
N490 G0 Z2
N500 G1 Z-1.8 F50
N510 G1 X40.902 Y14.598 F250
N520 G3 X44.821 Y17.898 I-1.748 J6.053
N530 G1 X67.53 Y17.9
N540 G3 X68.561 Y21.2 I-10.53 J5.1
N550 G1 X45.43 Y21.198
N560 G3 X45.4 Y21.473 I-6.276 J-0.548
N570 G2 X45.396 Y24.498 I11.6 J1.527
N580 G1 X68.603 Y24.5
N590 G3 X67.67 Y27.8 I-11.603 J-1.5
N600 G1 X44.959 Y27.798
N610 G0 Z2
N620 (<5: Tasche/Text -1.8>)
N630 G0 X16.145 Y28.636
N640 G0 Z2
N650 G1 Z-1.8 F50
N660 G1 X55.245 Y34.568 F250
N670 G2 X55.245 Y11.432 I1.755 J-11.568
N680 G1 X16.145 Y17.364
N690 G2 X16.145 Y28.636 I0.855 J5.636
N700 G0 Z2
N710 (<6: Tasche/Text -1.8>)
N720 G0 X38.209 Y14.422
N730 G0 Z2
N740 G1 Z-1.8 F50
N750 G3 X45.4 Y21.473 I0.945 J6.229 F250
N760 G2 X45.4 Y24.527 I11.6 J1.527
N770 G3 X38.209 Y31.578 I-6.246 J0.822
N780 G1 X28.028 Y30.034
N790 G3 X22.687 Y23.382 I0.945 J-6.229
N800 G2 X22.687 Y22.618 I-5.687 J-0.382
N810 G3 X28.028 Y15.966 I6.286 J-0.423
N820 G1 X38.209 Y14.422
N830 G0 Z2
N840 (<7: Tasche/Text -3.6>)
N850 G0 X37.051 Y14.597
N860 G0 Z2
N870 G1 Z-3.6 F50
N880 G1 X34.386 Y14.597 F250
N890 G1 X16.145 Y17.364
N900 G2 X14.464 Y17.895 I0.855 J5.636
N910 G1 X24.368 Y17.896
N920 G2 X22.753 Y21.196 I4.605 J4.299
N930 G1 X11.593 Y21.195
N940 G2 X11.5 Y24.495 I5.407 J1.805
N950 G1 X22.711 Y24.496
N960 G2 X24.098 Y27.796 I6.262 J-0.691
N970 G1 X13.918 Y27.795
N980 G2 X16.145 Y28.636 I3.082 J-4.795
N990 G1 X32.368 Y31.097
N1000 G1 X35.036 Y31.097
N1010 G1 X38.209 Y31.578
N1020 G2 X41.733 Y31.098 I0.945 J-6.229
N1030 G1 X65.443 Y31.1
N1040 G3 X59.636 Y34.399 I-8.443 J-8.1
N1050 G1 X54.132 Y34.399
N1060 G0 Z2
N1070 (<8: Tasche/Text -3.6>)
N1080 G0 X65.144 Y14.6
N1090 G0 Z2
N1100 G1 Z-3.6 F50
N1110 G1 X40.902 Y14.598 F250
N1120 G3 X44.821 Y17.898 I-1.748 J6.053
N1130 G1 X67.53 Y17.9
N1140 G3 X68.561 Y21.2 I-10.53 J5.1
N1150 G1 X45.43 Y21.198
N1160 G3 X45.4 Y21.473 I-6.276 J-0.548
N1170 G2 X45.396 Y24.498 I11.6 J1.527
N1180 G1 X68.603 Y24.5
N1190 G3 X67.67 Y27.8 I-11.603 J-1.5
N1200 G1 X44.959 Y27.798
N1210 G0 Z2
N1220 (<9: Tasche/Text -3.6>)
N1230 G0 X16.145 Y28.636
N1240 G0 Z2
N1250 G1 Z-3.6 F50
N1260 G1 X55.245 Y34.568 F250
N1270 G2 X55.245 Y11.432 I1.755 J-11.568
N1280 G1 X16.145 Y17.364
N1290 G2 X16.145 Y28.636 I0.855 J5.636
N1300 G0 Z2
N1310 (<10: Tasche/Text -3.6>)
N1320 G0 X38.209 Y14.422
N1330 G0 Z2
N1340 G1 Z-3.6 F50
N1350 G3 X45.4 Y21.473 I0.945 J6.229 F250
N1360 G2 X45.4 Y24.527 I11.6 J1.527
N1370 G3 X38.209 Y31.578 I-6.246 J0.822
N1380 G1 X28.028 Y30.034
N1390 G3 X22.687 Y23.382 I0.945 J-6.229
N1400 G2 X22.687 Y22.618 I-5.687 J-0.382
N1410 G3 X28.028 Y15.966 I6.286 J-0.423
N1420 G1 X38.209 Y14.422
N1430 G0 Z2
N1440 (<11: Tasche/Text -5.4>)
N1450 G0 X37.051 Y14.597
N1460 G0 Z2
N1470 G1 Z-5.4 F50
N1480 G1 X34.386 Y14.597 F250
N1490 G1 X16.145 Y17.364
N1500 G2 X14.464 Y17.895 I0.855 J5.636
N1510 G1 X24.368 Y17.896
N1520 G2 X22.753 Y21.196 I4.605 J4.299
N1530 G1 X11.593 Y21.195
N1540 G2 X11.5 Y24.495 I5.407 J1.805
N1550 G1 X22.711 Y24.496
N1560 G2 X24.098 Y27.796 I6.262 J-0.691
N1570 G1 X13.918 Y27.795
N1580 G2 X16.145 Y28.636 I3.082 J-4.795
N1590 G1 X32.368 Y31.097
N1600 G1 X35.036 Y31.097
N1610 G1 X38.209 Y31.578
N1620 G2 X41.733 Y31.098 I0.945 J-6.229
N1630 G1 X65.443 Y31.1
N1640 G3 X59.636 Y34.399 I-8.443 J-8.1
N1650 G1 X54.132 Y34.399
N1660 G0 Z2
N1670 (<12: Tasche/Text -5.4>)
N1680 G0 X65.144 Y14.6
N1690 G0 Z2
N1700 G1 Z-5.4 F50
N1710 G1 X40.902 Y14.598 F250
N1720 G3 X44.821 Y17.898 I-1.748 J6.053
N1730 G1 X67.53 Y17.9
N1740 G3 X68.561 Y21.2 I-10.53 J5.1
N1750 G1 X45.43 Y21.198
N1760 G3 X45.4 Y21.473 I-6.276 J-0.548
N1770 G2 X45.396 Y24.498 I11.6 J1.527
N1780 G1 X68.603 Y24.5
N1790 G3 X67.67 Y27.8 I-11.603 J-1.5
N1800 G1 X44.959 Y27.798
N1810 G0 Z2
N1820 (<13: Tasche/Text -5.4>)
N1830 G0 X16.145 Y28.636
N1840 G0 Z2
N1850 G1 Z-5.4 F50
N1860 G1 X55.245 Y34.568 F250
N1870 G2 X55.245 Y11.432 I1.755 J-11.568
N1880 G1 X16.145 Y17.364
N1890 G2 X16.145 Y28.636 I0.855 J5.636
N1900 G0 Z2
N1910 (<14: Tasche/Text -5.4>)
N1920 G0 X38.209 Y14.422
N1930 G0 Z2
N1940 G1 Z-5.4 F50
N1950 G3 X45.4 Y21.473 I0.945 J6.229 F250
N1960 G2 X45.4 Y24.527 I11.6 J1.527
N1970 G3 X38.209 Y31.578 I-6.246 J0.822
N1980 G1 X28.028 Y30.034
N1990 G3 X22.687 Y23.382 I0.945 J-6.229
N2000 G2 X22.687 Y22.618 I-5.687 J-0.382
N2010 G3 X28.028 Y15.966 I6.286 J-0.423
N2020 G1 X38.209 Y14.422
N2030 G0 Z2
N2040 (<15: Tasche/Text -7.2>)
N2050 G0 X37.051 Y14.597
N2060 G0 Z2
N2070 G1 Z-7.2 F50
N2080 G1 X34.386 Y14.597 F250
N2090 G1 X16.145 Y17.364
N2100 G2 X14.464 Y17.895 I0.855 J5.636
N2110 G1 X24.368 Y17.896
N2120 G2 X22.753 Y21.196 I4.605 J4.299
N2130 G1 X11.593 Y21.195
N2140 G2 X11.5 Y24.495 I5.407 J1.805
N2150 G1 X22.711 Y24.496
N2160 G2 X24.098 Y27.796 I6.262 J-0.691
N2170 G1 X13.918 Y27.795
N2180 G2 X16.145 Y28.636 I3.082 J-4.795
N2190 G1 X32.368 Y31.097
N2200 G1 X35.036 Y31.097
N2210 G1 X38.209 Y31.578
N2220 G2 X41.733 Y31.098 I0.945 J-6.229
N2230 G1 X65.443 Y31.1
N2240 G3 X59.636 Y34.399 I-8.443 J-8.1
N2250 G1 X54.132 Y34.399
N2260 G0 Z2
N2270 (<16: Tasche/Text -7.2>)
N2280 G0 X65.144 Y14.6
N2290 G0 Z2
N2300 G1 Z-7.2 F50
N2310 G1 X40.902 Y14.598 F250
N2320 G3 X44.821 Y17.898 I-1.748 J6.053
N2330 G1 X67.53 Y17.9
N2340 G3 X68.561 Y21.2 I-10.53 J5.1
N2350 G1 X45.43 Y21.198
N2360 G3 X45.4 Y21.473 I-6.276 J-0.548
N2370 G2 X45.396 Y24.498 I11.6 J1.527
N2380 G1 X68.603 Y24.5
N2390 G3 X67.67 Y27.8 I-11.603 J-1.5
N2400 G1 X44.959 Y27.798
N2410 G0 Z2
N2420 (<17: Tasche/Text -7.2>)
N2430 G0 X16.145 Y28.636
N2440 G0 Z2
N2450 G1 Z-7.2 F50
N2460 G1 X55.245 Y34.568 F250
N2470 G2 X55.245 Y11.432 I1.755 J-11.568
N2480 G1 X16.145 Y17.364
N2490 G2 X16.145 Y28.636 I0.855 J5.636
N2500 G0 Z2
N2510 (<18: Tasche/Text -7.2>)
N2520 G0 X38.209 Y14.422
N2530 G0 Z2
N2540 G1 Z-7.2 F50
N2550 G3 X45.4 Y21.473 I0.945 J6.229 F250
N2560 G2 X45.4 Y24.527 I11.6 J1.527
N2570 G3 X38.209 Y31.578 I-6.246 J0.822
N2580 G1 X28.028 Y30.034
N2590 G3 X22.687 Y23.382 I0.945 J-6.229
N2600 G2 X22.687 Y22.618 I-5.687 J-0.382
N2610 G3 X28.028 Y15.966 I6.286 J-0.423
N2620 G1 X38.209 Y14.422
N2630 G0 Z2
N2640 (<19: Tasche/Text -9>)
N2650 G0 X37.051 Y14.597
N2660 G0 Z2
N2670 G1 Z-9 F50
N2680 G1 X34.386 Y14.597 F250
N2690 G1 X16.145 Y17.364
N2700 G2 X14.464 Y17.895 I0.855 J5.636
N2710 G1 X24.368 Y17.896
N2720 G2 X22.753 Y21.196 I4.605 J4.299
N2730 G1 X11.593 Y21.195
N2740 G2 X11.5 Y24.495 I5.407 J1.805
N2750 G1 X22.711 Y24.496
N2760 G2 X24.098 Y27.796 I6.262 J-0.691
N2770 G1 X13.918 Y27.795
N2780 G2 X16.145 Y28.636 I3.082 J-4.795
N2790 G1 X32.368 Y31.097
N2800 G1 X35.036 Y31.097
N2810 G1 X38.209 Y31.578
N2820 G2 X41.733 Y31.098 I0.945 J-6.229
N2830 G1 X65.443 Y31.1
N2840 G3 X59.636 Y34.399 I-8.443 J-8.1
N2850 G1 X54.132 Y34.399
N2860 G0 Z2
N2870 (<20: Tasche/Text -9>)
N2880 G0 X65.144 Y14.6
N2890 G0 Z2
N2900 G1 Z-9 F50
N2910 G1 X40.902 Y14.598 F250
N2920 G3 X44.821 Y17.898 I-1.748 J6.053
N2930 G1 X67.53 Y17.9
N2940 G3 X68.561 Y21.2 I-10.53 J5.1
N2950 G1 X45.43 Y21.198
N2960 G3 X45.4 Y21.473 I-6.276 J-0.548
N2970 G2 X45.396 Y24.498 I11.6 J1.527
N2980 G1 X68.603 Y24.5
N2990 G3 X67.67 Y27.8 I-11.603 J-1.5
N3000 G1 X44.959 Y27.798
N3010 G0 Z2
N3020 (<21: Tasche/Text -9>)
N3030 G0 X16.145 Y28.636
N3040 G0 Z2
N3050 G1 Z-9 F50
N3060 G1 X55.245 Y34.568 F250
N3070 G2 X55.245 Y11.432 I1.755 J-11.568
N3080 G1 X16.145 Y17.364
N3090 G2 X16.145 Y28.636 I0.855 J5.636
N3100 G0 Z2
N3110 (<22: Tasche/Text -9>)
N3120 G0 X38.209 Y14.422
N3130 G0 Z2
N3140 G1 Z-9 F50
N3150 G3 X45.4 Y21.473 I0.945 J6.229 F250
N3160 G2 X45.4 Y24.527 I11.6 J1.527
N3170 G3 X38.209 Y31.578 I-6.246 J0.822
N3180 G1 X28.028 Y30.034
N3190 G3 X22.687 Y23.382 I0.945 J-6.229
N3200 G2 X22.687 Y22.618 I-5.687 J-0.382
N3210 G3 X28.028 Y15.966 I6.286 J-0.423
N3220 G1 X38.209 Y14.422
N3230 G0 Z2
N3240 (<23: Kontur ohne BK -10.6>)
N3250 G0 X17.068 Y23.937
N3260 G0 Z2
N3270 G1 Z-10.6 F50
N3280 G3 X17 Y24.7 I-0.068 J0.378 F250
N3290 G3 X17 Y21.3 I0 J-1.7
N3300 G3 X17 Y24.7 I0 J1.7
N3310 G3 X17.135 Y24.335 I0 J-0.208
N3320 G0 Z2
N3330 (<24: Kontur ohne BK -12.2>)
N3340 G0 X17.068 Y23.937
N3350 G0 Z2
N3360 G1 Z-12.2 F50
N3370 G3 X17 Y24.7 I-0.068 J0.378 F250
N3380 G3 X17 Y21.3 I0 J-1.7
N3390 G3 X17 Y24.7 I0 J1.7
N3400 G3 X17.135 Y24.335 I0 J-0.208
N3410 G0 Z2
N3420 (<25: Kontur ohne BK -10.6>)
N3430 G0 X56.952 Y26.896
N3440 G0 Z2
N3450 G1 Z-10.6 F50
N3460 G3 X57 Y27.7 I0.048 J0.401 F250
N3470 G3 X57 Y18.3 I0 J-4.7
N3480 G3 X57 Y27.7 I0 J4.7
N3490 G3 X56.952 Y26.896 I0 J-0.403
N3500 G0 Z2
N3510 (<26: Kontur ohne BK -12.2>)
N3520 G0 X56.952 Y26.896
N3530 G0 Z2
N3540 G1 Z-12.2 F50
N3550 G3 X57 Y27.7 I0.048 J0.401 F250
N3560 G3 X57 Y18.3 I0 J-4.7
N3570 G3 X57 Y27.7 I0 J4.7
N3580 G3 X56.952 Y26.896 I0 J-0.403
N3590 G0 Z2
N3600 
N3610 (<27: Werkzeug Schlicht 6.0>)
N3620 T2 M6
N3630 S1800 F200 M3
N3640 G49
N3650 (<28: Kontur ohne BK -9>)
N3660 G0 X55.135 Y34.353
N3670 G0 Z2
N3680 G1 Z-9 F50
N3690 G3 X55.2 Y34.864 I0.106 J0.246 F200
N3700 G1 X16.1 Y28.932
N3710 G3 X16.1 Y17.068 I0.9 J-5.932
N3720 G1 X55.2 Y11.136
N3730 G3 X55.2 Y34.864 I1.8 J11.864
N3740 G3 X55.212 Y34.419 I0.034 J-0.222
N3750 G0 Z2
N3760 (<30: Kontur ohne BK -9>)
N3770 G0 X38.304 Y31.978
N3780 G0 Z2
N3790 G1 Z-9 F50
N3800 G3 X38.254 Y31.282 I-0.103 J-0.343 F200
N3810 G2 X45.103 Y24.566 I0.9 J-5.932
N3820 G3 X45.103 Y21.434 I11.897 J-1.566
N3830 G2 X38.254 Y14.718 I-5.949 J-0.783
N3840 G1 X28.073 Y16.263
N3850 G2 X22.986 Y22.597 I0.9 J5.932
N3860 G3 X22.986 Y23.403 I-5.986 J0.403
N3870 G2 X28.073 Y29.737 I5.986 J0.403
N3880 G1 X38.254 Y31.282
N3890 G3 X38.304 Y31.978 I-0.054 J0.354
N3900 G0 Z2
N3910 (<31: Kontur ohne BK -10.6>)
N3920 G0 X18.365 Y22.979
N3930 G0 Z2
N3940 G1 Z-10.6 F50
N3950 G3 X19 Y23 I0.317 J0.021 F200
N3960 G3 X15 Y23 I-2 J0
N3970 G3 X19 Y23 I2 J0
N3980 G3 X18.605 Y23.043 I-0.2 J0
N3990 G0 Z2
N4000 (<32: Kontur ohne BK -12.2>)
N4010 G0 X18.365 Y22.979
N4020 G0 Z2
N4030 G1 Z-12.2 F50
N4040 G3 X19 Y23 I0.317 J0.021 F200
N4050 G3 X15 Y23 I-2 J0
N4060 G3 X19 Y23 I2 J0
N4070 G3 X18.605 Y23.043 I-0.2 J0
N4080 G0 Z2
N4090 (<33: Kontur ohne BK -10.6>)
N4100 G0 X61.176 Y23.103
N4110 G0 Z2
N4120 G1 Z-10.6 F50
N4130 G3 X62 Y23 I0.405 J-0.103 F200
N4140 G3 X52 Y23 I-5 J0
N4150 G3 X62 Y23 I5 J0
N4160 G3 X61.176 Y23.103 I-0.418 J0
N4170 G0 Z2
N4180 (<34: Kontur ohne BK -12.2>)
N4190 G0 X61.176 Y23.103
N4200 G0 Z2
N4210 G1 Z-12.2 F50
N4220 G3 X62 Y23 I0.405 J-0.103 F200
N4230 G3 X52 Y23 I-5 J0
N4240 G3 X62 Y23 I5 J0
N4250 G3 X61.176 Y23.103 I-0.418 J0
N4260 G0 Z2
N4270 
N4280 (<35: Werkzeug Schrupp 6.0>)
N4290 T1 M6
N4300 S1500 F250 M3
N4310 G49
N4320 (<36: Kontur ohne BK -2.2>)
N4330 G0 X35.207 Y4.948
N4340 G0 Z2
N4350 G1 Z-2.2 F50
N4360 G3 X35.245 Y5.768 I-0.024 J0.412 F250
N4370 G1 X23.576 Y7.539
N4380 G3 X23.472 Y7.486 I-0.015 J-0.099
N4390 G2 X9.703 Y10.648 I-6.472 J3.377
N4400 G3 X9.655 Y10.731 I-0.1 J-0.003
N4410 G2 X4.727 Y15.66 I7.345 J12.269
N4420 G3 X4.647 Y15.709 I-0.086 J-0.051
N4430 G2 X4.647 Y30.291 I0.353 J7.291
N4440 G3 X4.727 Y30.34 I-0.005 J0.1
N4450 G2 X9.655 Y35.269 I12.273 J-7.34
N4460 G3 X9.703 Y35.352 I-0.051 J0.086
N4470 G2 X23.472 Y38.514 I7.297 J-0.215
N4480 G3 X23.576 Y38.461 I0.089 J0.046
N4490 G1 X49.776 Y42.436
N4500 G3 X49.859 Y42.514 I-0.015 J0.099
N4510 G2 X64.228 Y42.025 I7.141 J-1.514
N4520 G3 X64.291 Y41.946 I0.099 J0.014
N4530 G2 X75.946 Y30.291 I-7.291 J-18.946
N4540 G3 X76.025 Y30.228 I0.093 J0.036
N4550 G2 X76.025 Y15.772 I-1.025 J-7.228
N4560 G3 X75.946 Y15.709 I0.014 J-0.099
N4570 G2 X64.291 Y4.054 I-18.946 J7.291
N4580 G3 X64.228 Y3.975 I0.036 J-0.093
N4590 G2 X49.859 Y3.486 I-7.228 J1.025
N4600 G3 X49.776 Y3.564 I-0.098 J-0.021
N4610 G1 X35.245 Y5.768
N4620 G3 X35.207 Y4.948 I-0.062 J-0.408
N4630 G0 Z2
N4640 (<37: Kontur ohne BK -4.2>)
N4650 G0 X35.207 Y4.948
N4660 G0 Z2
N4670 G1 Z-4.2 F50
N4680 G3 X35.245 Y5.768 I-0.024 J0.412 F250
N4690 G1 X23.576 Y7.539
N4700 G3 X23.472 Y7.486 I-0.015 J-0.099
N4710 G2 X9.703 Y10.648 I-6.472 J3.377
N4720 G3 X9.655 Y10.731 I-0.1 J-0.003
N4730 G2 X4.727 Y15.66 I7.345 J12.269
N4740 G3 X4.647 Y15.709 I-0.086 J-0.051
N4750 G2 X4.647 Y30.291 I0.353 J7.291
N4760 G3 X4.727 Y30.34 I-0.005 J0.1
N4770 G2 X9.655 Y35.269 I12.273 J-7.34
N4780 G3 X9.703 Y35.352 I-0.051 J0.086
N4790 G2 X23.472 Y38.514 I7.297 J-0.215
N4800 G3 X23.576 Y38.461 I0.089 J0.046
N4810 G1 X49.776 Y42.436
N4820 G3 X49.859 Y42.514 I-0.015 J0.099
N4830 G2 X64.228 Y42.025 I7.141 J-1.514
N4840 G3 X64.291 Y41.946 I0.099 J0.014
N4850 G2 X75.946 Y30.291 I-7.291 J-18.946
N4860 G3 X76.025 Y30.228 I0.093 J0.036
N4870 G2 X76.025 Y15.772 I-1.025 J-7.228
N4880 G3 X75.946 Y15.709 I0.014 J-0.099
N4890 G2 X64.291 Y4.054 I-18.946 J7.291
N4900 G3 X64.228 Y3.975 I0.036 J-0.093
N4910 G2 X49.859 Y3.486 I-7.228 J1.025
N4920 G3 X49.776 Y3.564 I-0.098 J-0.021
N4930 G1 X35.245 Y5.768
N4940 G3 X35.207 Y4.948 I-0.062 J-0.408
N4950 G0 Z2
N4960 (<38: Kontur ohne BK -6.2>)
N4970 G0 X35.207 Y4.948
N4980 G0 Z2
N4990 G1 Z-6.2 F50
N5000 G3 X35.245 Y5.768 I-0.024 J0.412 F250
N5010 G1 X23.576 Y7.539
N5020 G3 X23.472 Y7.486 I-0.015 J-0.099
N5030 G2 X9.703 Y10.648 I-6.472 J3.377
N5040 G3 X9.655 Y10.731 I-0.1 J-0.003
N5050 G2 X4.727 Y15.66 I7.345 J12.269
N5060 G3 X4.647 Y15.709 I-0.086 J-0.051
N5070 G2 X4.647 Y30.291 I0.353 J7.291
N5080 G3 X4.727 Y30.34 I-0.005 J0.1
N5090 G2 X9.655 Y35.269 I12.273 J-7.34
N5100 G3 X9.703 Y35.352 I-0.051 J0.086
N5110 G2 X23.472 Y38.514 I7.297 J-0.215
N5120 G3 X23.576 Y38.461 I0.089 J0.046
N5130 G1 X49.776 Y42.436
N5140 G3 X49.859 Y42.514 I-0.015 J0.099
N5150 G2 X64.228 Y42.025 I7.141 J-1.514
N5160 G3 X64.291 Y41.946 I0.099 J0.014
N5170 G2 X75.946 Y30.291 I-7.291 J-18.946
N5180 G3 X76.025 Y30.228 I0.093 J0.036
N5190 G2 X76.025 Y15.772 I-1.025 J-7.228
N5200 G3 X75.946 Y15.709 I0.014 J-0.099
N5210 G2 X64.291 Y4.054 I-18.946 J7.291
N5220 G3 X64.228 Y3.975 I0.036 J-0.093
N5230 G2 X49.859 Y3.486 I-7.228 J1.025
N5240 G3 X49.776 Y3.564 I-0.098 J-0.021
N5250 G1 X35.245 Y5.768
N5260 G3 X35.207 Y4.948 I-0.062 J-0.408
N5270 G0 Z2
N5280 (<39: Kontur ohne BK -8.2>)
N5290 G0 X35.207 Y4.948
N5300 G0 Z2
N5310 G1 Z-8.2 F50
N5320 G3 X35.245 Y5.768 I-0.024 J0.412 F250
N5330 G1 X23.576 Y7.539
N5340 G3 X23.472 Y7.486 I-0.015 J-0.099
N5350 G2 X9.703 Y10.648 I-6.472 J3.377
N5360 G3 X9.655 Y10.731 I-0.1 J-0.003
N5370 G2 X4.727 Y15.66 I7.345 J12.269
N5380 G3 X4.647 Y15.709 I-0.086 J-0.051
N5390 G2 X4.647 Y30.291 I0.353 J7.291
N5400 G3 X4.727 Y30.34 I-0.005 J0.1
N5410 G2 X9.655 Y35.269 I12.273 J-7.34
N5420 G3 X9.703 Y35.352 I-0.051 J0.086
N5430 G2 X23.472 Y38.514 I7.297 J-0.215
N5440 G3 X23.576 Y38.461 I0.089 J0.046
N5450 G1 X49.776 Y42.436
N5460 G3 X49.859 Y42.514 I-0.015 J0.099
N5470 G2 X64.228 Y42.025 I7.141 J-1.514
N5480 G3 X64.291 Y41.946 I0.099 J0.014
N5490 G2 X75.946 Y30.291 I-7.291 J-18.946
N5500 G3 X76.025 Y30.228 I0.093 J0.036
N5510 G2 X76.025 Y15.772 I-1.025 J-7.228
N5520 G3 X75.946 Y15.709 I0.014 J-0.099
N5530 G2 X64.291 Y4.054 I-18.946 J7.291
N5540 G3 X64.228 Y3.975 I0.036 J-0.093
N5550 G2 X49.859 Y3.486 I-7.228 J1.025
N5560 G3 X49.776 Y3.564 I-0.098 J-0.021
N5570 G1 X35.245 Y5.768
N5580 G3 X35.207 Y4.948 I-0.062 J-0.408
N5590 G0 Z2
N5600 (<40: Kontur ohne BK -10.2>)
N5610 G0 X35.207 Y4.948
N5620 G0 Z2
N5630 G1 Z-10.2 F50
N5640 G3 X35.245 Y5.768 I-0.024 J0.412 F250
N5650 G1 X23.576 Y7.539
N5660 G3 X23.472 Y7.486 I-0.015 J-0.099
N5670 G2 X9.703 Y10.648 I-6.472 J3.377
N5680 G3 X9.655 Y10.731 I-0.1 J-0.003
N5690 G2 X4.727 Y15.66 I7.345 J12.269
N5700 G3 X4.647 Y15.709 I-0.086 J-0.051
N5710 G2 X4.647 Y30.291 I0.353 J7.291
N5720 G3 X4.727 Y30.34 I-0.005 J0.1
N5730 G2 X9.655 Y35.269 I12.273 J-7.34
N5740 G3 X9.703 Y35.352 I-0.051 J0.086
N5750 G2 X23.472 Y38.514 I7.297 J-0.215
N5760 G3 X23.576 Y38.461 I0.089 J0.046
N5770 G1 X49.776 Y42.436
N5780 G3 X49.859 Y42.514 I-0.015 J0.099
N5790 G2 X64.228 Y42.025 I7.141 J-1.514
N5800 G3 X64.291 Y41.946 I0.099 J0.014
N5810 G2 X75.946 Y30.291 I-7.291 J-18.946
N5820 G3 X76.025 Y30.228 I0.093 J0.036
N5830 G2 X76.025 Y15.772 I-1.025 J-7.228
N5840 G3 X75.946 Y15.709 I0.014 J-0.099
N5850 G2 X64.291 Y4.054 I-18.946 J7.291
N5860 G3 X64.228 Y3.975 I0.036 J-0.093
N5870 G2 X49.859 Y3.486 I-7.228 J1.025
N5880 G3 X49.776 Y3.564 I-0.098 J-0.021
N5890 G1 X35.245 Y5.768
N5900 G3 X35.207 Y4.948 I-0.062 J-0.408
N5910 G0 Z2
N5920 (<41: Kontur ohne BK -12.2>)
N5930 G0 X35.207 Y4.948
N5940 G0 Z2
N5950 G1 Z-12.2 F50
N5960 G3 X35.245 Y5.768 I-0.024 J0.412 F250
N5970 G1 X23.576 Y7.539
N5980 G3 X23.472 Y7.486 I-0.015 J-0.099
N5990 G2 X9.703 Y10.648 I-6.472 J3.377
N6000 G3 X9.655 Y10.731 I-0.1 J-0.003
N6010 G2 X4.727 Y15.66 I7.345 J12.269
N6020 G3 X4.647 Y15.709 I-0.086 J-0.051
N6030 G2 X4.647 Y30.291 I0.353 J7.291
N6040 G3 X4.727 Y30.34 I-0.005 J0.1
N6050 G2 X9.655 Y35.269 I12.273 J-7.34
N6060 G3 X9.703 Y35.352 I-0.051 J0.086
N6070 G2 X23.472 Y38.514 I7.297 J-0.215
N6080 G3 X23.576 Y38.461 I0.089 J0.046
N6090 G1 X49.776 Y42.436
N6100 G3 X49.859 Y42.514 I-0.015 J0.099
N6110 G2 X64.228 Y42.025 I7.141 J-1.514
N6120 G3 X64.291 Y41.946 I0.099 J0.014
N6130 G2 X75.946 Y30.291 I-7.291 J-18.946
N6140 G3 X76.025 Y30.228 I0.093 J0.036
N6150 G2 X76.025 Y15.772 I-1.025 J-7.228
N6160 G3 X75.946 Y15.709 I0.014 J-0.099
N6170 G2 X64.291 Y4.054 I-18.946 J7.291
N6180 G3 X64.228 Y3.975 I0.036 J-0.093
N6190 G2 X49.859 Y3.486 I-7.228 J1.025
N6200 G3 X49.776 Y3.564 I-0.098 J-0.021
N6210 G1 X35.245 Y5.768
N6220 G3 X35.207 Y4.948 I-0.062 J-0.408
N6230 G0 Z2
N6240 
N6250 (<42: Werkzeug Schlicht 6.0>)
N6260 T2 M6
N6270 S1800 F200 M3
N6280 G49
N7890 (<48: Kontur ohne BK -12.2>)
N7900 G0 X34.868 Y5.236
N7910 G0 Z2
N7920 G1 Z-12.2 F50
N7930 G3 X35.29 Y6.065 I0.348 J0.345 F200
N7940 G1 X23.621 Y7.835
N7950 G3 X23.206 Y7.625 I-0.06 J-0.395
N7960 G2 X10.003 Y10.657 I-6.206 J3.238
N7970 G3 X9.809 Y10.988 I-0.4 J-0.012
N7980 G2 X4.985 Y15.814 I7.191 J12.012
N7990 G3 X4.661 Y16.008 I-0.343 J-0.205
N8000 G2 X4.661 Y29.992 I0.339 J6.992
N8010 G3 X4.985 Y30.186 I-0.019 J0.4
N8020 G2 X9.809 Y35.012 I12.015 J-7.186
N8030 G3 X10.003 Y35.343 I-0.205 J0.343
N8040 G2 X23.206 Y38.375 I6.997 J-0.206
N8050 G3 X23.621 Y38.165 I0.355 J0.185
N8060 G1 X49.821 Y42.14
N8070 G3 X50.152 Y42.452 I-0.06 J0.395
N8080 G2 X63.931 Y41.983 I6.848 J-1.452
N8090 G3 X64.183 Y41.666 I0.396 J0.056
N8100 G2 X75.666 Y30.183 I-7.183 J-18.666
N8110 G3 X75.983 Y29.931 I0.373 J0.144
N8120 G2 X75.983 Y16.069 I-0.983 J-6.931
N8130 G3 X75.666 Y15.817 I0.056 J-0.396
N8140 G2 X64.183 Y4.334 I-18.666 J7.183
N8150 G3 X63.931 Y4.017 I0.144 J-0.373
N8160 G2 X50.152 Y3.548 I-6.931 J0.983
N8170 G3 X49.821 Y3.86 I-0.391 J-0.083
N8180 G1 X35.29 Y6.065
N8190 G3 X34.868 Y5.236 I-0.073 J-0.484
N8200 G0 Z2
N8210 
N8220 (<50: Werkzeug NC-Anbohrer>)
N8230 T4 M6
N8240 S1000 F0 M3
N8250 G49
N8260 (<51: G81 Bohren -1>)
N8270 G81 X17 Y35.137 Z-1 R2 F100
N8280 X57 Y41 (Folgezyklus)
N8290 X75 Y23 (Folgezyklus)
N8300 X57 Y5 (Folgezyklus)
N8310 X17 Y10.863 (Folgezyklus)
N8320 X5 Y23 (Folgezyklus)
N8330 X37 Y23 (Folgezyklus)
N8340 
N8350 (<54: Werkzeug Spiralbohrer 3.2>)
N8360 T3 M6
N8370 S2000 M3
N8380 G49
N8390 (<55: G83 Tiefbohren Entspänen -8>)
N8400 G83 X17 Y35.137 Z-8 R2 Q4 F100
N8410 X57 Y41 (Folgezyklus)
N8420 X75 Y23 (Folgezyklus)
N8430 X57 Y5 (Folgezyklus)
N8440 X17 Y10.863 (Folgezyklus)
N8450 X5 Y23 (Folgezyklus)
N8460 X37 Y23 (Folgezyklus)
N8470 (<56: Programmende relativ wegfahren>)
N8480 G91
N8490 G0 Z10 M5 M9
N8500 G0 X0 Y0
N8510 G90
N8520 M30
N8530 
N8540 