(Projekt HLRS_FA Testobjekt v3)
(Erstellt mit Estlcam Version 11 Build 11,244)
(Laufzeit ca. 00:01:03 Stunden)

(Benoetigte Werkzeuge:)
(Fraeser 5mm)
(T1  D=5.0 CR=0. - ZMIN=0 - SCHAFTFRSER)
(Fraeser 8mm)
(T2  D=8.0 CR=0. - ZMIN=0 - SCHAFTFRSER)

; werkstück abmessungen
(xMin=0.0, xMax=100, yMin=0.0, yMax=60, zMin =-40.0, zMax = 0)

T1 M6

G90
(G91.1)
M03 S24000
G0 Z5.0000


(Nr. 1: Ausschnitt 1)
G0 X14.5377 Y30.6250
G0 Z0.5000
G1 Z0.0000 F1200 S24000
G1 Z-10.0000
G1 X70.4623
G1 X71.9682 Y34.3750
G1 X13.0318
G1 X13.0000 Y38.1250
G1 X72.0000
G1 Y41.8750
G1 X13.0000
G1 X13.0318 Y45.6250
G1 X71.9682
G1 X70.4623 Y49.3750
G1 X14.5377
G1 X14.2567 Y49.8172
G2 X20.0351 Y52.5000 I5.7432 J-4.8058
G1 X64.9649
G2 X72.5000 Y44.9649 I0.0325 J-7.5025
G1 Y35.0351
G2 X64.9649 Y27.5000 I-7.5025 J-0.0325
G1 X20.0351
G2 X12.5000 Y35.0351 I-0.0325 J7.5025
G1 Y44.9649
G2 X14.2567 Y49.8172 I7.4795 J0.0364
G1 X14.5377 Y49.3750
G1 Z-20.0000
G1 X70.4623
G1 X71.9682 Y45.6250
G1 X13.0318
G1 X13.0000 Y41.8750
G1 X72.0000
G1 Y38.1250
G1 X13.0000
G1 X13.0318 Y34.3750
G1 X71.9682
G1 X70.4623 Y30.6250
G1 X14.5377
G1 X14.2567 Y30.1828
G2 X12.5000 Y35.0351 I5.7281 J4.8179
G1 Y44.9649
G2 X20.0351 Y52.5000 I7.5025 J0.0325
G1 X64.9649
G2 X72.5000 Y44.9649 I0.0325 J-7.5025
G1 Y35.0351
G2 X64.9649 Y27.5000 I-7.5025 J-0.0325
G1 X20.0351
G2 X14.2567 Y30.1828 I-0.0352 J7.4886
G1 X14.5377 Y30.6250
G0 Z5.0000


(Nr. 2: Bohrung 1)
M05
M00 (Wechsle Werkzeug: Bohrer 8mm)
T2 M6
M03
G0 X50.0000 Y10.0000 Z5.0000
G0 Z0.5000
G1 Z-35.0000 F1200
G0 Z5.0000
G0 X0.0000 Y0.0000

M05
M30
